src/img/icons/arrow-r.svg

<svg width="24" height="16" viewBox="0 0 24 16" fill="none" xmlns="http://www.w3.org/2000/svg">
<path fill-rule="evenodd" clip-rule="evenodd" d="M15.7239 1.05715C16.2446 0.536451 17.0888 0.536451 17.6095 1.05715L23.6095 7.05715C24.1302 7.57785 24.1302 8.42207 23.6095 8.94277L17.6095 14.9428C17.0888 15.4635 16.2446 15.4635 15.7239 14.9428C15.2032 14.4221 15.2032 13.5778 15.7239 13.0572L19.4477 9.33329H1.33333C0.596954 9.33329 0 8.73634 0 7.99996C0 7.26358 0.596954 6.66663 1.33333 6.66663H19.4477L15.7239 2.94277C15.2032 2.42207 15.2032 1.57785 15.7239 1.05715Z" fill="white"/>
</svg>

<svg xmlns="http://www.w3.org/2000/svg" fill="none" viewBox="0 0 24 16"><path fill="#fff" fill-rule="evenodd" d="M15.724 1.057c.52-.52 1.365-.52 1.886 0l6 6c.52.52.52 1.365 0 1.886l-6 6a1.333 1.333 0 1 1-1.886-1.886l3.724-3.724H1.333a1.333 1.333 0 1 1 0-2.666h18.115l-3.724-3.724a1.333 1.333 0 0 1 0-1.886z" clip-rule="evenodd"/></svg>
